X:1
T:La Chanson de Jean Prouvaire
T:La Chanson de Jean Prouvaire
T:(Les Misérables)
T:Augusta Holmès
T:Victor Hugo
T:À mon amie Olga Klose
T:N°1 pour Baryton ou Mezzo Soprano
C:Augusta Holmès
Z:Victor Hugo
%%score ( 1 2 ) { 3 | ( 4 5 ) }
L:1/8
Q:1/4=116
M:2/4
K:D
V:1 treble nm="Hautbois"
V:2 treble 
V:3 treble nm="Piano"
V:4 bass 
V:5 bass 
V:1
"^Allegretto. Tempo di Valse" z4 | z4 | z4 | z4 | z4 | z4 | z4 | z4 |!p! F F A c | B2 A F | %10
w: ||||||||Vous rap- pe- lez-|vous no- tre|
 D F E2 | F2- F z | D D C B, |!<(! ^G G!<)! d2- | d2 F B |!>(! A4-!>)! | A2 z2 | z4 |!<(! B B B B | %19
w: dou- ce vi-|e, *|Lors- que nous é-|tions si jeu-|* nes tous|deux,|||Et que nous n'a-|
 c c c2-!<)! |!<(! c2 c ^B | ^d2-!<)! d z |!mf! c ^B ^A c | ^B ^G ^D2 | ^E2 ^A2 | %25
w: vions au cœur|* d'autre en-|vi- e|Que d'ê- tre bien|mis, et d'être|a- mou-|
!<(! ^G2!<)!!>(! B2- | B2-!>)! B z | z4 | z4 ||[K:E]!p! G G B d | c B G2- | G2 F ^D | F2 E2 | %33
w: \- reux. *||||Lors- qu'en a- jou-|\- tant votre â-|ge à mon|â- ge|
!p!!<(! E F G!f! ^d!<)! |!>(! c G!>)!!p! E2- | E2 F G | F4 |!<(! G G G G | ^A2 A A!<)! | c c c2- | %40
w: Nous ne comp- tions|pas à deux |_ qua- rante|ans,|Et que dans notre|humble et pe-|tit mé- na-|
 c2 B z |!mf! G/ z/ ^A B e | d2!p! B F | G2 c2 |!<(! B4-!<)! |!f!!>(! B2-!>)! B z | z4 | z4 | z4 | %49
w: * ge,|Tout, mê- me l'hi-|ver, nous é-|tait- prin-|temps. |_ _||||
 z4 | z4 | z4 ||[K:D]!p! F F A c | B A F2 | D F E2 | F2- F z | D D C B, | ^G G d2- | d2 F B | A4- | %60
w: |||J'ai fort lu Pla-|ton, mais rien|ne m'en res-|te, *|Mieux que Ma- le-|branche ou que |_ La- men-|nais!|
 A2 z2 | z4 |!<(! B B B B | c2 c c | c3 ^B!<)! | ^d3 d |!mf! c ^B ^A c | ^B2 ^G ^D | ^E2 ^A2 | %69
w: ||Tu me dé- mon-|trais la bon-|té cé-|les- te|A- vec u- ne|fleur que tu|me don-|
 (^G2 B2-) | B2- B z | z4 | z4 ||[K:E] G G B d | c2 B2- | B G F D | F2 E2 |!p!!<(! E F G!f! d!<)! | %78
w: nais. *||||Et qui donc pour-|rait per-|* dre la mé-|moi- re|De ces temps d'au-|
!>(! c G E2-!>)! |!p! E2 F G | F4 |!<(! G G G G | ^A3 A | c c/ c/ c2-!<)! | c2 B2 |!mf! G ^A B e | %86
w: rore et de|* fir- ma-|ment?|De ru- bans, d'a-|\- zur, de|gaze et de moi-|* re,|Où l'a- mour bé-|
 d2 B F | G2 c2 | B4- | B2 z2 | z4 | z4 | z4[Q:1/4=110] | z4 |[Q:1/4=106] z4 | z4 || %96
w: gaye un ar-|\- got char-|mant?||||||||
[K:D]!p!"^Rallentando molto, con tristezza"[Q:1/4=100] F F A c | B2 A F | D F E2 | F2- F z | %100
w: Te rap- pel- les-|tu nos bon-|\- heurs sans nom-|bre, *|
!p![Q:1/4=105]!<(! D D C B, | ^G G!<)!!f!!>(! d2- | d2 F B!>)! | A4- | A2 z2 | z4 | %106
w: Et tous ces fi-|chus chan- gés |_ en chif-|\- fons?|||
!f!!<(! B B B B | c2 c!<)! c | e e e2- | e2 d2 |!mf! B c d g | (f2 F) z |!p! G A B e | (d2 D) z | %114
w: Oh! que de sou-|pirs, de nos|cœurs pleins d'om-|* bre,|Se sont en- vo-|lés *|Se sont en- vo-|\- lés *|
[Q:1/4=100]"^rall." _B B B B |[Q:1/4=96] _B2 B B | _B4 | (_B4 | %118
w: Se sont en- vo-|lés dans les|cieux|pro-|
[Q:1/4=116]"_1° tempo"[Q:1/4=116] A4- | A2) z2 | z4 | z4 | z4 | z4 | z4 | z4 |] %126
w: fonds!||||||||
V:2
 x4 | x4 | x4 | x4 | x4 | x4 | x4 | x4 | x4 | x4 | x4 | x4 | x4 | x4 | x4 | x4 | x4 | x4 | x4 | %19
 x4 | x4 | x4 | x4 | x4 | x4 | x4 | x4 | x4 | x4 ||[K:E] x4 | x4 | x4 | x4 | x4 | x4 | x4 | x4 | %37
 x4 | x4 | x4 | x4 | x4 | x4 | x4 | x4 | x4 | x4 | x4 | x4 | x4 | x4 | x4 ||[K:D] x4 | x4 | x4 | %55
 x4 | x4 | x4 | x4 | x4 | x4 | x4 | x4 | x4 | x4 | x4 | x4 | x4 | x4 | x4 | x4 | x4 | x4 || %73
[K:E] x4 | x4 | x4 | x4 | x4 | x4 | x4 | x4 | x4 | x4 | x4 | x4 | x4 | x4 | x4 | x4 | x4 | x4 | %91
 x4 | x4 | x4 | x4 | x4 ||[K:D] x4 | x4 | x4 | x4 | x4 | x4 | x4 | x4 | x4 | x4 | x4 | x4 | x4 | %109
 x4 | x3 G | (F2 A) x | x4 | x4 | x4 | x4 | x4 | x4 | x4 | x4 | x4 | x4 | x4 | x4 | x4 | x4 |] %126
V:3
 z2!p! (3z!<(! .[fa]!<)!.[dd'] |!>(! (3[cc']!>)![cg] z (3z!<(! .[cg]!<)!.[cc'] | %2
!>(! (3[db]!>)![df] z (3z!<(! .[fd']!<)!.[ff'] |!mf! (3:2:2[^ge']2 [gb] (3:2:2[=gc']2 [ge'] | %4
!>(! (3([fd']!>)![fa]) z (3z!p!!<(! .[fa]!<)!.[dd'] | %5
!>(! (3([cc']!>)![cg]) z (3z!<(! .[cg]!<)!.[cc'] | %6
!>(! (3([db]!>)![df]) z (3z!<(! .[fd']!<)!.[ff'] |!mf! (3:2:2([^ge']2 [gb]) (3:2:2([=gc']2 [ge']) | %8
!pp! (3z!>(! ([fa]!>)![dd']) (3z!>(! ([fa]!>)![cc']) | %9
 (3z!>(! ([df]!>)![Bb]) (3z!>(! ([df]!>)![Aa]) |!<(! (3z ([Bd][Ff]) (3z ([cg][Aa]) | %11
 (3z!<)!!mf! ([df]!>(![Bb]) (3z ([df][Aa])!>)! |!p! (3z!<(! ([Bd][Ff]) (3z!<)!!mf! ([df][Bb]) | %13
!>(! (3z ([Bd][^G^g]) (3z ([Bd]!>)!!p![Ff]) |!<(! (3z ([^Gd][Ee]) (3z ([de][^G^g]) | %15
 (3z!<)!!mf! ([c=g][Aa]) (3z!p!!<(! .[ga]!<)!.[dd'] | %16
!>(! (3([cc']!>)![cg]) z (3z!<(! .[cg].[cc']!<)! | %17
!>(! (3([db]!>)![df]) z (3z!<(! .[fd'].[ff']!<)! |!mf! (3[^ge']!p! ([^Gd][Ff]) (3z ([Gd][Ee]) | %19
 (3z ([Ac][Ff]) (3z ([Ac][Ee]) |"_cresc." (3z ([^^F^A][^E^e]) (3z ([FA][^D^d]) | %21
 (3z ([^G^B][^E^e]) (3z ([GB][^D^d]) | (3z!mf! ([^Ac]!<(![^E^e]) (3z ([ce]!mf![^A^a])!<)! | %23
!>(! (3z ([^B^d][^G^g]) (3z ([^GB]!>)!!p![^D^d]) | %24
!<(! (3z ([^Ac][^E^e]) (3z!<)!!mf! ([Ac][^^F^^f]) | %25
 (3z ([^B^d][^G^g])!mf! (3z!<(! .[g=b].[ee']!<)! | %26
!>(! (3([^d^d']!>)![d^a]) z (3z!<(! .[da].[dd']!<)! |!>(! (3([ec']!>)![e^g]) z (3z .[ge'].[gg'] | %28
!f! (3:2:2[^af']2 [ac'] (3:2:2[=a^d']2 [af'] || %29
[K:E]!p! (3z!>(! ([gb]!>)![ee']) (3z!>(! ([gb]!>)![dd']) | %30
 (3z!>(! ([eg]!>)![cc']) (3z!>(! ([eg]!>)![Bb]) | (3z!<(! ([^B^d][Gg]) (3z ([df][^A^a]) | %32
 (3z ([df]!<)![^B^b]) (3z ([eg][cc']) | (3z!>(! ([ce][Gg]) (3z ([^Ae][Ff])!>)! | %34
 (3z!>(! ([ce][Gg]) (3z ([^Ae][Ff])!>)! | (3z!>(! ([ce][Gg]) (3z ([^Ae][Ff])!>)! | %36
 (3z!f! ([f=a][cc']) (3z ([da][Bb]) | (3z!f!!>(! ([GB][Ee]) (3z ([GB]!>)!!p![Dd]) | %38
!f!!>(! (3z ([^^F^A][Ee]) (3z ([FA]!>)!!p![Dd]) | (3z!f!!>(! ([^^F^A][Ee]) (3z ([FA]!>)!!p![Dd]) | %40
 (3z!f!!>(! ([GB][Ee]) (3z ([GB]!p![Dd])!>)! |!mf! (3z ([ce][Gg]) (3z ([eg][cc']) | %42
 (3z ([df][Bb]) (3z ([Bd][Ff]) | (3z ([ce][Gg]) (3z ([ef][^A^a]) | %44
 (3z ([df][Bb]) (3z .[gb]!f!.[ee'] |!>(! (3([dd']!>)![da]) z (3z!<(! .[da].[dd']!<)! | %46
 (3([ec'][eg]) z (3z .[ge']!f!.[gg'] | (3:2:2[^af']2 [ac']!f! (3:2:2[=ad']2!f! [af'] | %48
 (3([ge'][gb]) z (3z!p! .[fa].[=d=d'] | (3([cc'][c=g]) z (3z .[cg].[cc'] | %50
 (3([=db][df]) z (3z .[f=d'].[ff'] | (3:2:2[^ge']2 [gb] (3:2:2[=gc']2 [ge'] || %52
[K:D]!pp! (3z!>(! ([fa]!>)![dd']) (3z!>(! ([fa]!>)![cc']) | %53
 (3z!>(! ([df]!>)![Bb]) (3z!>(! ([df]!>)![Aa]) | (3z!>(! ([Bd]!>)![Ff]) (3z!<(! ([cg][Aa]) | %55
 (3z!<)!!mf! ([df][Bb])!>(! (3z ([df]!>)!!p![Aa]) | (3z!<(! ([Bd][Ff]) (3z ([df]!mf![Bb])!<)! | %57
 (3z!>(! ([Bd][^G^g]) (3z ([Bd]!p![Ff])!>)! | (3z!<(! ([^Gd][Ee]) (3z ([de][^G^g]) | %59
 (3z!<)!!mf! ([c=g][Aa]) (3z .[ga]!p!!<(!.[dd']!<)! | %60
!>(! (3([cc']!>)![cg]) z (3z!<(! .[cg].[cc']!<)! | %61
!>(! (3([db]!>)![df]) z (3z!<(! .[fd'].[ff']!<)! |!mf! (3[^ge']!p!!<(! ([^Gd][Ff]) (3z ([Gd][Ee]) | %63
 (3z ([Ac][Ff]) (3z ([Ac][Ee]) | (3z ([^^F^A][^E^e]) (3z ([FA][^D^d])!<)! | %65
 (3z ([^G^B][^E^e]) (3z ([GB][^D^d]) | (3z!mf! ([^Ac]!<(![^E^e]) (3z ([ce][^A^a])!<)! | %67
!>(! (3z ([^B^d][^G^g]) (3z ([GB]!>)![^D^d]) | (3z!<(! ([^Ac][^E^e]) (3z ([Ac][^^F^^f]) | %69
 (3z!<)! ([^B^d][^G^g])!mf! (3z!<(! .[g=b].[ee']!<)! |!>(! (3([^d^d']!>)![da]) z (3z .[da].[dd'] | %71
 (3([ec'][e^g]) z (3z .[ge'].[gg'] |!f! (3:2:2[^af']2 [ac'] (3:2:2[=a^d']2 [af'] || %73
[K:E]!p! (3z!>(! ([gb]!>)![ee']) (3z!>(! ([gb]!>)![dd']) | %74
 (3z!>(! ([eg]!>)![cc']) (3z!>(! ([eg]!>)![Bb]) | (3z!<(! ([^Bd][Gg]) (3z ([df][^A^a]) | %76
 (3z ([df]!<)!!f![^B^b]) (3z ([eg][cc']) | (3z!f!!>(! ([ce][Gg]) (3z ([^Ae]!p![Ff])!>)! | %78
 (3z!f!!>(! ([ce][Gg]) (3z ([^Ae]!p![Ff])!>)! | (3z!f!!>(! ([ce][Gg]) (3z ([^Ae]!p![Ff])!>)! | %80
 (3z!f! ([f=a][cc']) (3z ([da][Bb]) | (3z!f!!>(! ([GB][Ee]) (3z ([GB]!>)!!p![Dd]) | %82
 (3z!f!!>(! ([^^F^A][Ee]) (3z ([FA]!>)!!p![Dd]) | (3z!f!!>(! ([^^F^A][Ee]) (3z ([FA]!>)!!p![Dd]) | %84
 (3z!f!!>(! ([GB][Ee]) (3z ([GB]!p![Dd])!>)! |!mf! (3z ([ce][Gg]) (3z ([eg][cc']) | %86
 (3z ([df][Bb]) (3z ([Bd][Ff]) | (3z ([ce][Gg]) (3z ([ef][^A^a]) | %88
 (3z ([df][Bb]) (3z .[gb]!f!.[ee'] | (3([dd']!mf![da]) z (3z!<(! .[da].[dd']!<)! | %90
!f!!>(! (3([ec']!>)!!mf![eg]) z (3z .[ge'].[gg'] |!mf! (3:2:2[^af']2 [ac'] (3:2:2[=ad']2 [af'] | %92
 (3([ge'][gb])"_rall." z (3z ([fa][=d=d']) | (3([cc'][c=g]) z (3z ([cg][cc']) | %94
 (3([=db][df]) z (3z ([f=d'][ff']) | (3:2:2[^ge']2 [gb] (3:2:2[=gc']2 [ge'] || %96
[K:D]!pp! (3z!>(!"_rall. molto" ([fa]!>)![dd']) (3z!>(! ([fa]!>)![cc']) | %97
 (3z!>(! ([df]!>)![Bb]) (3z!>(! ([df]!>)![Aa]) | (3z ([Bd][Ff]) (3z!p!!<(! ([cg][Aa]) | %99
 (3z!<)!!f! ([df]!>(![Bb]) (3z ([df]!p![Aa])!>)! | (3z!<(! ([Bd][Ff]) (3z ([df]!<)!!f![Bb]) | %101
 (3z!>(! ([Bd][^G^g]) (3z ([Bd][Ff])!>)! | (3z!<(! ([^Gd][Ee]) (3z ([de][^G^g])!<)! | %103
 (3z ([c=g][Aa]) (3z ([ga]!mf![dd']) | (3([cc'][cg]) z (3z!p! ([cg][cc']) | %105
 (3([db][df]) z (3z ([fd'][ff']) |!f! (3[^ge']!>(! ([^Gd][Ff]) (3z ([Gd]!p![Ee])!>)! | %107
 (3z!f!!>(! ([Ac][Ff]) (3z ([Ac]!p![Ee])!>)! |!f! (3z!>(! ([^Ac][Gg]) (3z ([Ac]!p![Ff])!>)! | %109
 (3z!f!!>(! ([Bd][Gg]) (3z ([Bd]!p![Ff])!>)! | (3z!mf!!<(! ([eg][Bb]) (3z ([gb][ee']) | %111
 (3z!<)!!f! ([fa]!>(![dd']) (3z ([df][Aa])!>)! |!p! (3z ([eg][Bb]) (3z ([eg][cc']) | %113
 (3z ([fb][dd']) (3z ([Bd][Ff]) |"_rall." [_A_B=f]4- | [_A_B=f]2 z2 | z4 | z4 | %118
 z2 (3z!pp! .[fa].[dd'] | (3([cc'][cg]) z (3z .[cg].[cc'] | (3([db][df]) z (3z .[fd'].[ff'] | %121
 (3:2:2[^ge']2 [gb] (3:2:2[=gc']2 [ge'] | (3([fd'][fa]) z (3z .[fa].[dd'] | (3([cc'][cg]) z z2 | %124
 z2!ppp! (3z .[cg].[cc'] | (3([db][df]) z !fermata!z2 |] %126
V:4
 (3D,, z A,!>(! (3:2:2[DF]2!>)! A, | (3A,, z A,!>(! (3:2:2[EG]2!>)! A, | %2
 (3D,, z A,!>(! (3:2:2[DF]2!>)! A, | (3:2:2E,, B,2 (3([E=G]A,) z | %4
 (3D,, z A,!>(! (3:2:2[DF]2!>)! A, | (3A,, z A,!>(! (3:2:2[EG]2!>)! A, | %6
 (3D,, z A,!>(! (3:2:2[DF]2!>)! A, | (3:2:2E,, B,2 (3([E=G]A,) z | D,, z (3([DF]A,) z | %9
 D,, z (3([DF]A,) z | B,, z (3([EG]A,) z | D,, z (3([DF]A,) z | B,, z (3([B,D]F,) z | %13
 E,, z (3([B,D]E,) z | E,, z (3([B,D]E,) z | A,, z (3([EG]A,) z | %16
 (3A,, z A,!>(! (3:2:2[EG]2!>)! A, | (3D,, z A,!>(! (3:2:2[DF]2!>)! A, | %18
 (3:2:2E,, z2!>(! (3([B,D]!>)!E,) z | A,, z!>(! (3([A,C]!>)!E,) z | %20
 ^D,, z!>(! (3([^A,C]!>)!^D,) z | ^G,, z!>(! (3([^G,^B,]!>)!^D,) z | %22
 ^A,,, z!>(! (3([^A,C]!>)!^E,) z | ^D,, z!>(! (3([^G,^B,]!>)!^D,) z | %24
 ^D,, z!>(! (3([^A,C]!>)!^D,) z | [^G,,^G,] z !>!=B,2- | B,2!>(! x2!>)! | %27
 (3E,, z B,!>(! (3:2:2[E^G]2!>)! B, | (3:2:2F,, C2!>(! (3([F=A]!>)!B,) z || %29
[K:E] E,, z!>(! (3([EG]!>)!B,) z | E,, z!>(! (3([EG]!>)!B,) z | G,, z!>(! (3([DF]!>)!G,) z | %32
 C, z!>(! (3([CE]!>)!G,) z | F,, z!>(! (3([CE]!>)!F,) z | F,, z!>(! (3([CE]!>)!F,) z | %35
 F,, z!>(! (3([CE]!>)!F,) z | B,, z!>(! (3([FA]!>)!B,) z | G,, z!>(! (3([G,B,]!>)!D,) z | %38
 D,, z!>(! (3([^A,C]!>)!D,) z | D,, z!>(! (3([^A,C]!>)!D,) z | G,, z!>(! (3([G,B,]!>)!D,) z | %41
 E,, z!>(! (3([CE]!>)!G,) z | F,, z!>(! (3([B,D]!>)!F,) z | F,, z!>(! (3([CE]!>)!F,) z | %44
 B,, z B,2- | B,2!>(! x2!>)! | (3E,, z B,!>(! (3:2:2[EG]2!>)! B, | %47
 (3:2:2F,, C2!>(! (3([F=A]!>)!B,) z | (3E,, z B,!>(! (3:2:2[=DF]2!>)! A, | %49
 (3A,, z A,!>(! (3:2:2[E=G]2!>)! A, | (3=D,, z A,!>(! (3:2:2[=DF]2!>)! A, | %51
 (3:2:2E,, B,2!>(! (3([E=G]A,)!>)! z ||[K:D] D,, z!>(! (3([DF]!>)!A,) z | %53
 D,, z!>(! (3([DF]!>)!A,) z | B,, z!>(! (3([EG]!>)!A,) z | D,, z!>(! (3([DF]!>)!A,) z | %56
 B,, z!>(! (3([B,D]!>)!F,) z | E,, z!>(! (3([B,D]!>)!E,) z | E,, z!>(! (3([B,D]!>)!E,) z | %59
 A,, z!>(! (3([EG]!>)!A,) z | (3A,, z A,!>(! (3:2:2[EG]2!>)! A, | %61
 (3D,, z A,!>(! (3:2:2[DF]2!>)! A, | E,, z!>(! (3([B,D]!>)!E,) z | A,, z!>(! (3([A,C]!>)!E,) z | %64
 ^D,, z!>(! (3([^A,C]!>)!^D,) z | ^G,, z!>(! (3([^G,^B,]!>)!^D,) z | %66
 ^A,,, z!>(! (3([^A,C]!>)!^E,) z | ^D,, z!>(! (3([^G,^B,]!>)!^D,) z | %68
 ^D,, z!>(! (3([^A,C]!>)!^D,) z | [^G,,^G,] z !>!=B,2- | B,2 x2 | %71
 (3E,, z B,!>(! (3:2:2[E^G]2!>)! B, | (3:2:2F,, C2!>(! (3([FA]!>)!B,) z || %73
[K:E] E,, z (3([EG]B,) z | E,, z!>(! (3([EG]!>)!B,) z | G,, z!>(! (3([DF]!>)!G,) z | %76
 C, z!>(! (3([CE]!>)!G,) z | F,, z!>(! (3([CE]!>)!F,) z | F,, z!>(! (3([CE]!>)!F,) z | %79
 F,, z!>(! (3([CE]!>)!F,) z | B,, z!>(! (3([FA]!>)!B,) z | G,, z!>(! (3([G,B,]!>)!D,) z | %82
 D,, z!>(! (3([^A,C]!>)!D,) z | D,, z!>(! (3([^A,C]!>)!D,) z | G,, z!>(! (3([G,B,]!>)!D,) z | %85
 E,, z!>(! (3([CE]!>)!G,) z | F,, z!>(! (3([B,D]!>)!F,) z | F,, z (3([CE]F,) z | B,, z !>!B,2- | %89
 B,2!>(! x2!>)! | (3E,, z B,!>(! (3:2:2[EG]2!>)! B, | (3:2:2F,, C2 (3([F=A]B,) z | %92
 (3E,, z B, (3:2:2[=DF]2 A, | (3A,, z A, (3:2:2[E=G]2 A, | (3=D,, z A, (3:2:2[=DF]2 A, | %95
 (3:2:2E,, B,2 (3([E=G]A,) z ||[K:D] D,, z!>(! (3([DF]!>)!A,) z | D,, z!>(! (3([DF]!>)!A,) z | %98
 B,, z!>(! (3([EG]!>)!A,) z | D,, z!>(! (3([DF]!>)!A,) z | B,, z!>(! (3([B,D]!>)!F,) z | %101
 E,, z!>(! (3([B,D]!>)!E,) z | E,, z!>(! (3([B,D]!>)!E,) z | A,, z!>(! (3([EG]!>)!A,) z | %104
 (3A,, z A,!>(! (3:2:2[EG]2!>)! A, | (3D,, z A,!>(! (3:2:2[DF]2!>)! A, | %106
 E,, z!>(! (3([B,D]!>)!E,) z | A,, z!>(! (3([A,C]!>)!E,) z | F,, z!>(! (3([CE]!>)!F,) z | %109
 B,, z!>(! (3([B,D]!>)!F,) z | G,, z (3([B,E]G,) z | A,, z (3([DF]A,) z | A,, z (3([EG]A,) z | %113
 B,, z (3([B,D]F,) z | [_B,D]4- | [_B,D]2 z2 | z4 | z4 | z4 | %119
!pp! (3A,, z (A,!>(! (3:2:2[EG]2!>)! A,) | (3D,, z (A,!>(! (3:2:2[DF]2!>)! A,) | %121
 (3:2:2E,, B,2!>(! (3([E=G]!>)!A,) z | (3D,, z (A, (3:2:2[DF]2 A,) | A,, (3z!<(! (A,!<)![EG]) z | %124
 z4 | (3D,, z!<(! (A,!<)!!pp! [DF]) z |] %126
V:5
 x4 | x4 | x4 | x4 | x4 | x4 | x4 | x4 | x4 | x4 | x4 | x4 | x4 | x4 | x4 | x4 | x4 | x4 | x4 | %19
 x4 | x4 | x4 | x4 | x4 | x4 | x2 z2 | (3B,, z B, (3:2:2[FA]2 B, | x4 | x4 ||[K:E] x4 | x4 | x4 | %32
 x4 | x4 | x4 | x4 | x4 | x4 | x4 | x4 | x4 | x4 | x4 | x4 | x2 z2 | (3B,,, z B, (3:2:2[FA]2 B, | %46
 x4 | x4 | x4 | x4 | x4 | x4 ||[K:D] x4 | x4 | x4 | x4 | x4 | x4 | x4 | x4 | x4 | x4 | x4 | x4 | %64
 x4 | x4 | x4 | x4 | x4 | x2 z2 | (3B,, z!>(! B, (3:2:2[FA]2!>)! B, | x4 | x4 ||[K:E] x4 | x4 | %75
 x4 | x4 | x4 | x4 | x4 | x4 | x4 | x4 | x4 | x4 | x4 | x4 | x4 | x2 z2 | %89
 (3B,,, z B, (3:2:2[FA]2 B, | x2 x2 | x4 | x2 x2 | x2 x2 | x2 x2 | x4 ||[K:D] x4 | x4 | x4 | x4 | %100
 x4 | x4 | x4 | x4 | x2 x2 | x2 x2 | x4 | x4 | x4 | x4 | x4 | x4 | x4 | x4 | x4 | x4 | x4 | x4 | %118
 x4 | x2 x2 | x2 x2 | x4 | x2 x2 | x4 | x4 | x2 x2 |] %126

